images/process3.svg

<?xml version="1.0" encoding="UTF-8" standalone="no"?>
<svg width="90px" height="90px" viewBox="0 0 90 90" version="1.1" xmlns="http://www.w3.org/2000/svg" xmlns:xlink="http://www.w3.org/1999/xlink" xmlns:sketch="http://www.bohemiancoding.com/sketch/ns">
    <!-- Generator: Sketch 3.3.3 (12081) - http://www.bohemiancoding.com/sketch -->
    <title>process3</title>
    <desc>Created with Sketch.</desc>
    <defs></defs>
    <g id="Page-1" stroke="none" stroke-width="1" fill="none" fill-rule="evenodd" sketch:type="MSPage">
        <g id="process3" sketch:type="MSArtboardGroup" fill="#CD2122">
            <path d="M59.0173701,36.8 C60.0412179,36.8 61.0650657,36.38 61.7877818,35.66 C62.5104979,34.94 62.9320823,33.98 62.9320823,32.9 C62.9320823,31.82 62.5104979,30.86 61.7877818,30.14 C61.0650657,29.42 60.1014443,29 59.0173701,29 C57.9935223,29 56.9696745,29.42 56.2469585,30.14 C55.5242424,30.86 55.102658,31.82 55.102658,32.9 C55.102658,33.98 55.5242424,34.94 56.2469585,35.66 C57.0299009,36.38 57.9935223,36.8 59.0173701,36.8 L59.0173701,36.8 Z M71.9660334,18.5 C60.1014443,18.5 48.8993449,23.12 40.5278835,31.46 L34.6257021,37.34 L26.3144671,37.34 C25.8928827,37.34 25.5315246,37.52 25.2303929,37.76 L19.6895696,43.28 C18.7861745,44.18 19.4486642,45.86 20.7736437,45.86 L28.9041997,45.86 L33.4814016,52.4 L30.7109899,59.12 C30.2291792,60.32 31.4939324,61.58 32.6984592,61.1 L39.4438094,58.34 L45.9482542,62.9 L45.9482542,71 C45.9482542,72.32 47.5743654,72.98 48.5379868,72.08 L54.0788102,66.56 C54.3799419,66.26 54.5003946,65.9 54.5003946,65.48 L54.5003946,57.2 L60.402576,51.32 C68.8342637,42.98 73.4716919,31.82 73.4716919,20 C73.4716919,19.16 72.8092022,18.5 71.9660334,18.5 Z M48.9595712,67.4 L48.9595712,62.18 C48.9595712,61.7 48.7186659,61.22 48.2970815,60.92 L40.4074308,55.46 C39.9858464,55.16 39.4438094,55.1 38.9619986,55.28 L34.7461548,57.02 L36.4927187,52.82 C36.6733977,52.34 36.6131713,51.8 36.3120396,51.38 L30.8314426,43.52 C30.5303109,43.1 30.1087265,42.86 29.5666895,42.86 L24.3269978,42.86 L26.8565041,40.34 L34.9870601,40.34 C38.5404143,47.54 44.322143,53.3 51.5493039,56.72 L51.5493039,64.82 L48.9595712,67.4 L48.9595712,67.4 Z M58.294654,49.22 L52.1515673,55.34 C45.2857644,52.1 39.7449411,46.58 36.4927187,39.74 L42.6358054,33.62 C50.1038717,26.18 59.9207652,21.92 70.4603749,21.5 C70.0387905,32 65.7627203,41.78 58.294654,49.22 Z M27.5792202,71.9 C27.6394466,72.26 27.9405783,72.5 28.3019363,72.5 C28.4826153,72.5 28.6632944,72.44 28.8439734,72.26 L33.2404963,67.88 L34.3847967,71.24 C34.6257021,71.96 35.4086445,71.84 35.7700026,71.36 C35.9506816,71.12 36.1313606,70.88 36.2518133,70.64 C36.9143031,69.68 37.5165665,68.72 38.1790562,67.76 C38.7813196,66.86 39.3233567,66.02 39.9256201,65.12 C40.0460728,65 40.1665255,64.82 40.2267518,64.7 C40.6483362,63.86 39.5040357,63.02 38.9619986,63.86 L35.2881919,69.32 L34.2643441,66.26 C34.083665,65.72 33.4211753,65.6 32.9995909,65.96 L28.783747,70.16 L28.3019363,67.1 C28.24171,66.62 27.6394466,66.32 27.1576358,66.56 L22.2190759,69.5 L25.1701666,64.58 C25.411072,64.16 25.1701666,63.56 24.6281295,63.44 L21.5565861,62.9 L25.77243,58.7 C26.133788,58.34 26.0133354,57.62 25.4712983,57.44 L22.3997549,56.42 L27.8803519,52.76 C28.7235207,52.22 27.8803519,51.08 27.0371832,51.5 C26.8565041,51.56 26.7360515,51.68 26.6155988,51.8 C25.7122037,52.4 24.8690349,52.94 23.9656398,53.54 C23.0020183,54.2 22.0383969,54.8 21.0747754,55.46 C20.8338701,55.64 20.5929647,55.76 20.3520593,55.94 C19.8702486,56.3 19.7497959,57.08 20.472512,57.32 L23.8451871,58.46 L19.4486642,62.84 C19.0270798,63.26 19.2679852,64.04 19.8702486,64.1 L23.30315,64.64 L19.3884379,71.36 C18.9668535,72.02 19.7497959,72.8 20.4122857,72.38 L26.9769568,68.42 L27.5792202,71.9 Z" id="Shape" sketch:type="MSShapeGroup"></path>
        </g>
    </g>
</svg>

<svg width="90" height="90" xmlns="http://www.w3.org/2000/svg"><g id="Page-1" stroke="none" stroke-width="1" fill="none" fill-rule="evenodd"><g id="process3" fill="#CD2122"><path d="M59.017 36.8a3.98 3.98 0 002.77-1.14 3.845 3.845 0 001.145-2.76c0-1.08-.422-2.04-1.144-2.76a3.874 3.874 0 00-2.77-1.14 3.98 3.98 0 00-2.771 1.14 3.845 3.845 0 00-1.144 2.76c0 1.08.421 2.04 1.144 2.76.783.72 1.747 1.14 2.77 1.14zm12.949-18.3c-11.865 0-23.067 4.62-31.438 12.96l-5.902 5.88h-8.312c-.421 0-.782.18-1.084.42l-5.54 5.52c-.904.9-.241 2.58 1.084 2.58h8.13l4.577 6.54-2.77 6.72c-.482 1.2.783 2.46 1.987 1.98l6.746-2.76 6.504 4.56V71c0 1.32 1.626 1.98 2.59 1.08l5.54-5.52c.302-.3.422-.66.422-1.08V57.2l5.903-5.88c8.431-8.34 13.069-19.5 13.069-31.32 0-.84-.663-1.5-1.506-1.5zM48.96 67.4v-5.22c0-.48-.241-.96-.663-1.26l-7.89-5.46c-.421-.3-.963-.36-1.445-.18l-4.216 1.74 1.747-4.2c.18-.48.12-1.02-.181-1.44l-5.48-7.86c-.302-.42-.723-.66-1.265-.66h-5.24l2.53-2.52h8.13c3.553 7.2 9.335 12.96 16.562 16.38v8.1l-2.59 2.58zm9.335-18.18l-6.143 6.12a32.884 32.884 0 01-15.66-15.6l6.144-6.12c7.468-7.44 17.285-11.7 27.824-12.12-.421 10.5-4.697 20.28-12.165 27.72zM27.579 71.9c.06.36.362.6.723.6.18 0 .361-.06.542-.24l4.396-4.38 1.145 3.36c.24.72 1.024.6 1.385.12.18-.24.361-.48.482-.72.662-.96 1.265-1.92 1.927-2.88.602-.9 1.144-1.74 1.747-2.64.12-.12.24-.3.3-.42.422-.84-.722-1.68-1.264-.84l-3.674 5.46-1.024-3.06c-.18-.54-.843-.66-1.264-.3l-4.216 4.2-.482-3.06c-.06-.48-.663-.78-1.144-.54l-4.939 2.94 2.951-4.92c.241-.42 0-1.02-.542-1.14l-3.071-.54 4.215-4.2c.362-.36.241-1.08-.3-1.26L22.4 56.42l5.48-3.66c.844-.54 0-1.68-.843-1.26-.18.06-.3.18-.421.3-.904.6-1.747 1.14-2.65 1.74-.964.66-1.928 1.26-2.891 1.92-.241.18-.482.3-.723.48-.482.36-.602 1.14.12 1.38l3.373 1.14-4.396 4.38c-.422.42-.181 1.2.421 1.26l3.433.54-3.915 6.72c-.421.66.362 1.44 1.024 1.02l6.565-3.96.602 3.48z" id="Shape"/></g></g></svg>
